**kern	**kern	**dynam
*part1	*part1	*part1
*staff2	*staff1	*
*I"Piano	*	*
*clefF4	*clefG2	*
*k[f#c#g#d#]	*k[f#c#g#d#]	*
=1	=1	=1
*^	*	*
!	!	!	!LO:DY:a
!	!	!	!LO:DY:a
(8.FF#L	2.FF#	2e 2a#X 2cc#	p >
16EJk	.	.	.
2F#)	.	.	.
.	.	(8.eL 8.a#	.
.	.	16cc#Jk)	.
=	=	=	=
(8.FF#L	2.FF#	2d# 2f#	.
16EJk	.	.	.
2F#)	.	.	.
.	.	(8.BL 8.d#	.
.	.	[16f#Jk)	.
=	=	=	=
*	*	*^	*
(8.FF#L	2FF#	2.f#]	(4A#X 4c#	] p
16EJk	.	.	.	.
2F#)	.	.	4B 4d#	.
.	4FF#	.	4c#) 4e	.
*v	*v	*	*	*
=	=	=	=
(8.BBBL	(2f#	2B 2d#	.
16FF#Jk	.	.	.
4BB	.	.	.
4D#)	4B)	4B	.
=	=	=	=
!	!	!	!LO:DY:a
(8.GG#L	(4d#	2B	???
16D#Jk	.	.	.
4G#	4e	.	.
4D#)	4f#)	4B	.
=	=	=	=
(8.CC#L	2e	(4B	.
16GG#Jk	.	.	.
4C#	.	4A	.
4CC#)	4e	4G#)	.
*	*v	*v	*
=	=	=
*^	*	*
2A	(8.FF#L	(4c#	.
.	16C#Jk	.	.
.	4F#	4d#	.
4A	4C#)	4e)	.
*v	*v	*	*
=	=	=
*-	*-	*-
!!!system-decoration: {(s1,s2)}
